X:110
T:Prince Leopold of Saxe Cobourg’s Waltz. RH.110
R:Waltz
S:Rev.R.Harrison’s MS,c1815,Cumbria
O:England
A:Temple Sowerby,Cumbria
Z:vmp.Simon Wilson. Review PJH, 2008.
M:3/4
L:1/8
Q:3/4=65
K:C
G2|\
{A}G>FE2c2|e4dc|Bdf2ed|ceg2G2|!
{A}G>FE2c2|e4dc|(Bdgedf)|c4:|!
|:ed|d3b^fg|d3^c=cB|AGFedc|BAG2ed|!
d3b^fg|d3^c=cB|ABced^F|G2z2G2|!
{A}G>FE2c2|e4dc|Bdf2ed|ceg2G2|!
{A}G>FE2c2|e4dc|(Bdgfde)|c4:|!
|:e^d|ecA2ag|a3ecA|^G2[G2B2e2][G2B2e2]|[^G4B4e4]Bc|!
dB^gdba|gfedcB|ceacB^g|a4:|!
|:g2|g4a/b/c’/d’/|e’2((3e’d’c’) ((3bag)|\
gf[B2d2f2][B2d2f2]|[B4d4f4]f2|!
[G2B2d2f2]((3fed) ((3cBA)|G2G2AB|c2cedB|” DC”c4:|

